public/images/logo.svg

<svg width="60" height="84" viewBox="0 0 60 84" fill="none" xmlns="http://www.w3.org/2000/svg">
<path d="M11.0561 44.2632C9.92912 46.4268 7.26115 53.1476 10.7111 58.6486C14.6901 64.9782 22.648 71.4919 34.8149 69.6966C46.5678 67.9473 49.3278 64.3798 49.7188 58.1422C50.0177 53.3318 46.8668 53.3318 46.3378 52.8254C45.8318 52.319 45.7168 51.2833 46.8438 51.0991H47.0738H59.1257C60.2527 51.3063 60.1377 52.319 59.6317 52.8254C59.1257 53.3318 56.2737 53.3087 56.2507 58.1422L56.2277 60.6971C56.2277 62.2392 56.1357 67.8553 56.1357 67.8553C56.1357 67.8553 56.3427 69.3744 54.5947 69.2823C52.3407 69.1442 49.1208 69.6966 44.1528 71.5379C33.9409 75.3357 24.465 74.346 17.795 71.2387C9.72213 67.464 6.08816 62.7916 3.74218 56.462C2.10919 52.0658 -1.80077 54.3445 0.959205 50.6848C2.91419 48.107 5.46716 42.8131 6.18016 41.5933C6.18016 41.5933 8.22714 38.1177 9.92912 37.105C10.6881 36.6447 10.8491 37.6574 12.1601 40.9488C12.8041 42.5139 11.9531 42.4909 11.0561 44.2632Z" fill="#05376B"/>
<path d="M30.2813 34.5984C37.4128 34.8729 42.0999 37.4581 43.3109 37.9614C43.7594 38.1444 44.2304 37.0463 44.4995 36.2456C44.6789 35.6736 45.3292 34.1866 44.791 33.7519C44.3201 33.3859 39.8124 30.183 30.3037 30C30.0122 30 29.6982 30 29.6982 30C20.1671 30.1601 15.6819 33.3859 15.1885 33.7519C14.6951 34.0951 15.3006 35.6736 15.5249 36.2456C15.8389 37.0463 16.1528 38.1444 16.5341 37.9843C17.7227 37.4581 22.5443 34.8272 29.6982 34.5755C29.7206 34.5984 29.8328 34.5984 30.2813 34.5984Z" fill="#05376B"/>
<path d="M34 25.5C34 26.8776 32.8776 28 31.5 28C30.1224 28 29 26.8776 29 25.5C29 24.1224 30.1224 23 31.5 23C32.8776 23 34 24.1224 34 25.5Z" fill="#05376B"/>
<path d="M32.2339 16.02C32.2339 16.02 39.8035 26.7232 40.3677 26.857C41.355 27.0576 41.6841 27.0576 43.4237 26.7901C45.1633 26.5225 44.8812 25.3407 44.9518 24.9393C45.0223 24.5379 45.1633 23.5568 44.1055 23.9582C42.5069 24.5602 40.4147 25.0731 40.4147 25.0731L23.3244 0.366682C23.3244 0.366682 22.7367 -0.458352 21.5143 0.366682C20.5505 1.03563 21.0206 1.88296 22.2665 3.33234C23.536 4.78173 32.2339 16.02 32.2339 16.02Z" fill="#05376B"/>
<path d="M29.7606 16.02C29.7606 16.02 22.1942 26.7232 21.6303 26.857C20.6669 27.0576 20.3144 27.0576 18.5756 26.7901C16.8367 26.5225 17.1187 25.3407 17.0482 24.9393C16.9777 24.5379 16.8367 23.5568 17.8941 23.9582C19.492 24.5602 21.5833 25.0731 21.5833 25.0731L38.6662 0.366682C38.6662 0.366682 39.2537 -0.458352 40.4756 0.366682C41.4625 1.03563 40.969 1.88296 39.7236 3.33234C38.4548 4.78173 29.7606 16.02 29.7606 16.02Z" fill="#05376B"/>
<path d="M52.0839 44.5932C52.3372 46.8563 51.9918 48 53.0511 48C54.1103 48 54.1794 47.0753 54.4788 46.2236C54.7782 45.3476 55.8374 40.8458 58.0021 39.7994C59.2456 39.1911 59.3838 37.147 58.0942 37.0983C56.8046 37.0497 54.8472 38.4124 52.199 37.1713C51.4621 36.8306 51.1397 36.8306 50.4489 38.7774C50.4489 38.7774 49.712 40.7728 50.1265 40.9918C50.7943 41.3325 51.7845 41.8435 52.0839 44.5932Z" fill="#05376B"/>
<path d="M36.1355 46.5688C35.5155 43.6353 34.7117 41.6648 32.0479 41.6648C29.43 41.6648 27.2943 43.6801 27.2943 48.7857C27.2943 55.1677 29.6596 57.1159 32.3235 56.6904C34.9873 56.2649 35.6992 54.3839 36.7785 52.167C36.7785 52.167 37.1689 51.9207 37.766 52.167C38.363 52.4134 38.5697 52.7492 38.4319 52.9956C36.9852 57.1607 34.551 58.9297 31.7494 58.9969C26.4446 59.1312 23 54.9214 23 49.3455C23 43.6129 27.0187 39 31.8412 39C33.1272 39 34.2524 39.3135 35.4466 39.8733C35.814 40.0525 37.0541 41.1497 37.4445 41.3065C38.0186 41.5528 38.363 41.1497 38.7075 40.5675C38.7075 40.5675 38.8912 40.254 39.3275 40.366C39.7409 40.4779 40.1083 40.7243 39.9705 40.9706L37.4674 46.6584C36.6407 46.7703 36.1355 46.5688 36.1355 46.5688Z" fill="#05376B"/>
<path d="M35.1731 84C38.0177 84 36.5583 82.8586 36.5583 82.8586L34.3074 81.0682L36.9788 75.2047C36.9788 75.2047 37.1519 74.9137 36.5088 75.0256C35.5689 75.1823 34.0848 75.2718 33.1943 75.2942C32.7738 75.2942 32.6996 75.4956 32.6996 75.4956L31.5124 78.5169L30.3004 75.4956C30.3004 75.4956 30.2262 75.3166 29.8057 75.2942C28.9152 75.2718 27.4311 75.2047 26.4912 75.0256C25.8481 74.9137 26.0212 75.2047 26.0212 75.2047L28.6926 81.0682L26.4417 82.8586C26.4417 82.8586 24.9823 84 27.8269 84H35.1731Z" fill="#05376B"/>
<path d="M21.151 62.4332L22.7826 66.8293C22.7826 66.8293 22.8959 67.076 23.2585 67.2106C24.1649 67.5246 25.6832 67.9508 26.5443 67.9956C27.1562 68.0405 26.9749 67.7265 26.9749 67.7265L25.7059 64.4294C25.7059 64.4294 14.7378 35.384 13.1062 30.001C11.4973 24.6181 12.1998 24.2143 12.2904 21.7247C12.3811 19.6388 10.3869 19.7286 9.59375 20.5136C9.41246 20.693 3.92844 26.7937 2.52345 28.6777C1.11845 30.5617 2.65941 31.7505 5.74134 30.5617C8.2794 29.5973 9.57108 32.8495 9.57108 32.8495L21.9894 64.6537" fill="#05376B"/>
<path d="M40.7846 62.5326L39.1683 66.939C39.1683 66.939 39.0545 67.1863 38.6903 67.3212C37.7797 67.6359 36.3228 67.9282 35.4577 67.9956C34.8431 68.0406 35.0252 67.7258 35.0252 67.7258L36.209 64.5335C36.209 64.5335 47.2269 35.42 48.866 30.0244C50.4822 24.6289 49.7765 24.2242 49.6627 21.7288C49.5717 19.638 51.5749 19.7279 52.3717 20.5148C52.5538 20.6946 58.0628 26.8096 59.4742 28.698C60.8856 30.5865 59.3376 31.778 56.2416 30.5865C53.692 29.6198 52.3944 32.8796 52.3944 32.8796L39.9423 64.7583" fill="#05376B"/>
</svg>

<svg width="60" height="84" fill="none" xmlns="http://www.w3.org/2000/svg"><path d="M11.056 44.263c-1.127 2.164-3.795 8.885-.345 14.386 3.98 6.33 11.937 12.843 24.104 11.048 11.753-1.75 14.513-5.317 14.904-11.555.299-4.81-2.852-4.81-3.381-5.317-.506-.506-.621-1.542.506-1.726h12.282c1.127.207 1.012 1.22.506 1.726-.506.507-3.358.484-3.381 5.317l-.023 2.555c0 1.542-.092 7.158-.092 7.158s.207 1.52-1.541 1.427c-2.254-.138-5.474.415-10.442 2.256-10.212 3.798-19.688 2.808-26.358-.3-8.073-3.774-11.707-8.446-14.053-14.776C2.11 52.066-1.8 54.344.96 50.685c1.955-2.578 4.508-7.872 5.221-9.092 0 0 2.047-3.475 3.75-4.488.758-.46.92.552 2.23 3.844.644 1.565-.207 1.542-1.104 3.314zm19.225-9.665c7.132.275 11.819 2.86 13.03 3.363.448.183.92-.915 1.188-1.715.18-.572.83-2.06.292-2.494-.47-.366-4.979-3.569-14.487-3.752h-.606c-9.53.16-14.016 3.386-14.51 3.752-.493.343.113 1.922.337 2.494.314.8.628 1.898 1.01 1.738 1.188-.526 6.01-3.157 13.163-3.409.023.023.135.023.583.023zM34 25.5c0 1.378-1.122 2.5-2.5 2.5a2.504 2.504 0 01-2.5-2.5c0-1.378 1.122-2.5 2.5-2.5s2.5 1.122 2.5 2.5zm-1.766-9.48s7.57 10.703 8.134 10.837c.987.2 1.316.2 3.056-.067s1.457-1.45 1.528-1.85c.07-.402.211-1.383-.846-.982-1.6.602-3.691 1.115-3.691 1.115L23.325.367s-.588-.825-1.81 0c-.965.669-.494 1.516.752 2.965 1.269 1.45 9.967 12.688 9.967 12.688z" fill="#05376B"/><path d="M29.76 16.02s-7.566 10.703-8.13 10.837c-.963.2-1.316.2-3.054-.067-1.74-.267-1.457-1.45-1.528-1.85-.07-.402-.211-1.383.846-.982 1.598.602 3.69 1.115 3.69 1.115L38.665.367s.588-.825 1.81 0c.986.669.493 1.516-.752 2.965-1.27 1.45-9.963 12.688-9.963 12.688zm22.324 28.573c.253 2.263-.092 3.407.967 3.407 1.06 0 1.128-.925 1.428-1.776.3-.876 1.358-5.378 3.523-6.425 1.244-.608 1.382-2.652.092-2.7-1.29-.05-3.247 1.313-5.895.072-.737-.34-1.06-.34-1.75 1.606 0 0-.737 1.996-.322 2.215.667.34 1.657.852 1.957 3.601zm-15.948 1.976c-.62-2.934-1.424-4.904-4.088-4.904-2.618 0-4.754 2.015-4.754 7.12 0 6.383 2.366 8.33 5.03 7.905 2.663-.425 3.375-2.306 4.455-4.523 0 0 .39-.246.987 0s.804.582.666.829c-1.447 4.165-3.881 5.934-6.683 6-5.304.135-8.749-4.075-8.749-9.65C23 43.613 27.019 39 31.841 39c1.286 0 2.411.313 3.606.873.367.18 1.607 1.277 1.997 1.434.575.246.919-.157 1.264-.74 0 0 .183-.313.62-.201.413.112.78.358.642.605l-2.503 5.687c-.826.112-1.331-.09-1.331-.09zM35.173 84c2.845 0 1.385-1.141 1.385-1.141l-2.25-1.79 2.67-5.864s.174-.291-.47-.18c-.94.157-2.423.247-3.314.27-.42 0-.494.2-.494.2l-1.188 3.022-1.212-3.021s-.074-.18-.494-.202c-.89-.022-2.375-.09-3.315-.268-.643-.112-.47.179-.47.179l2.672 5.863-2.251 1.79S24.982 84 27.827 84h7.346zM21.151 62.433l1.632 4.396s.113.247.476.382c.906.314 2.424.74 3.285.785.612.044.43-.27.43-.27l-1.268-3.297s-10.968-29.045-12.6-34.428c-1.609-5.383-.906-5.787-.816-8.276.091-2.086-1.903-1.996-2.696-1.211-.182.179-5.666 6.28-7.07 8.164-1.406 1.884.135 3.072 3.217 1.884 2.538-.965 3.83 2.287 3.83 2.287L21.99 64.654" fill="#05376B"/><path d="M40.785 62.533l-1.617 4.406s-.114.247-.478.382c-.91.315-2.367.607-3.232.675-.615.045-.433-.27-.433-.27l1.184-3.192s11.018-29.114 12.657-34.51c1.616-5.395.91-5.8.797-8.295-.091-2.091 1.912-2.001 2.709-1.214.182.18 5.69 6.295 7.102 8.183 1.412 1.889-.136 3.08-3.232 1.889-2.55-.967-3.848 2.293-3.848 2.293L39.942 64.758" fill="#05376B"/></svg>
